src/lib/packages/icons/src/assets/filled/cleaver.svg

<svg width="24" height="24" viewBox="0 0 24 24" fill="none" xmlns="http://www.w3.org/2000/svg">
<path d="M16 2.5V13.5C16 13.78 15.78 14 15.5 14H14.36C13.1 14 12.09 14.88 11.82 16.01C11.79 16.15 11.67 16.25 11.53 16.25H8.29001C8.12001 16.25 7.98999 16.12 7.98999 15.95V5.13C7.98999 3 8.99 2 11.12 2H15.49C15.77 2 15.99 2.22 15.99 2.5H16ZM11.99 17.98L12.31 19.28C12.66 20.66 11.61 22 10.18 22C8.96999 22 7.98999 21.02 7.98999 19.81V18.05C7.98999 17.88 8.12001 17.75 8.29001 17.75H11.69C11.83 17.75 11.95 17.84 11.98 17.98H11.99ZM11.02 19.5C11.02 19.09 10.69 18.75 10.27 18.75C9.85999 18.75 9.51999 19.09 9.51999 19.5C9.51999 19.91 9.85999 20.25 10.27 20.25C10.68 20.25 11.02 19.91 11.02 19.5Z" fill="currentColor"/>
</svg>

<svg xmlns="http://www.w3.org/2000/svg" width="24" height="24" fill="none"><path fill="currentColor" d="M16 2.5v11c0 .28-.22.5-.5.5h-1.14c-1.26 0-2.27.88-2.54 2.01-.03.14-.15.24-.29.24H8.29c-.17 0-.3-.13-.3-.3V5.13C7.99 3 8.99 2 11.12 2h4.37c.28 0 .5.22.5.5H16Zm-4.01 15.48.32 1.3c.35 1.38-.7 2.72-2.13 2.72a2.19 2.19 0 0 1-2.19-2.19v-1.76c0-.17.13-.3.3-.3h3.4c.14 0 .26.09.29.23h.01Zm-.97 1.52a.749.749 0 1 0-1.498-.002.749.749 0 0 0 1.498.002Z"/></svg>
